X: 06036
T: KAREN McKERNAN
C: Bob McQuillen 7 Jan 82
B: Bob's Note Book 6 #36
%R: waltz
Z: 2021 John Chambers <jc:trillian.mit.edu>
M: 3/4
L: 1/4
K: G	% and D
def \
|: "G"gd>B | "C"e>fg | "G"dBG | "D7"A>FD || "Em"GB>G | "Am"ABc | e3 | "D7"d3 |\
| "G"gdB | "C"e>fg | "G"dBG | "Am"A>Bc || "G"dB"Em"G | "Am"E2"D7"F | "CAm"G3 | "G"G3 :|
[| "D"Ad>d | "A7"ed>e | "D"fdf | "G"e2d/^c/ |\
"G"B>^cd | "D"A"Bm"df | "G(Em7)"ag>f | "A7"e2A/A/ |\
| "D"Ad>d | "A7"ed>e | "D"fdf | "G"ed>^c || "E7"B^cd | "A7"e2f | "D7"d3- | d2c ||
|| "B"Bc>B | BFA | "Em"G>AG | GFE || GB>G | "Am"ABc | "B"B3 | "B7"ABc |\
| "G"dB>d | "C"e2d/e/ | "B"fga | "Em"ge"C"c || "G"B3 | "D7"A3 | "G"G3 |]
%%begintext align
%% Here is a waltz for
%% one of the loveliest ladies I have ever known.
%% I hope it brings you joy, my dear Karen -
%%endtext

%%sep 1 1 500

%%sep 1 1 500

